X: 6
T: Tommy Peoples'
R: reel
M: 4/4
L: 1/8
K: Gmaj
g2dg egde|g2bg age2|g2dg egdB|cBAc BGGf|g2dg egde|g2bg agef|gfga gedB|cBAc BGGF|


Tune 1100	Setting 14351

